themes/clean-landing/static/images/osm-logo-left.svg

<svg height="917" viewBox="0 0 1329 917" width="1329" xmlns="http://www.w3.org/2000/svg" xmlns:xlink="http://www.w3.org/1999/xlink"><defs><path id="a" d="m.16740014 135.974566 233.13908486 135.667108 232.005284-136.705352-232.005284-134.62886374z"/><mask id="b" fill="#fff"><use fill="#fff" fill-rule="evenodd" xlink:href="#a"/></mask></defs><g fill="none" fill-rule="evenodd"><path d="m0 0h1329v917h-1329z" fill="#fff"/><g fill-rule="nonzero"><path d="m190.032 781.536c5.536 0 10.72-1.056 15.552-3.168s9.072-5.048 12.72-8.808 6.504-8.128 8.568-13.104 3.096-10.312 3.096-16.008c0-5.728-1.032-11.072-3.096-16.032s-4.92-9.32-8.568-13.08-7.888-6.696-12.72-8.808-10.016-3.168-15.552-3.168-10.72 1.056-15.552 3.168-9.072 5.048-12.72 8.808-6.504 8.12-8.568 13.08-3.096 10.304-3.096 16.032c0 5.696 1.032 11.032 3.096 16.008s4.92 9.344 8.568 13.104 7.888 6.696 12.72 8.808 10.016 3.168 15.552 3.168zm0-12.096c-3.744 0-7.224-.728-10.44-2.184s-6.016-3.488-8.4-6.096-4.232-5.672-5.544-9.192-1.968-7.36-1.968-11.52.656-8 1.968-11.52 3.16-6.584 5.544-9.192 5.184-4.64 8.4-6.096 6.696-2.184 10.44-2.184c3.776 0 7.272.728 10.488 2.184s6.016 3.488 8.4 6.096 4.232 5.672 5.544 9.192 1.968 7.36 1.968 11.52-.656 8-1.968 11.52-3.16 6.584-5.544 9.192-5.184 4.64-8.4 6.096-6.712 2.184-10.488 2.184zm72.62414 35.52v-32.832c2.144 2.976 4.816 5.288 8.016 6.936s6.656 2.472 10.368 2.472c4.64 0 8.792-1.144 12.456-3.432s6.56-5.4 8.688-9.336 3.192-8.384 3.192-13.344c0-5.024-1.072-9.496-3.216-13.416s-5.064-7.016-8.76-9.288-7.912-3.408-12.648-3.408c-3.744 0-7.2.792-10.368 2.376s-5.744 3.8-7.728 6.648v-7.488h-11.952v74.112zm14.976-33.648c-2.944 0-5.576-.68-7.896-2.04s-4.136-3.24-5.448-5.64-1.968-5.136-1.968-8.208.664-5.808 1.992-8.208 3.144-4.28 5.448-5.64 4.928-2.04 7.872-2.04 5.552.68 7.824 2.04 4.072 3.248 5.4 5.664 1.992 5.16 1.992 8.232-.656 5.8-1.968 8.184-3.112 4.256-5.4 5.616-4.904 2.04-7.848 2.04zm71.318847 10.224c5.088 0 9.704-1.096 13.848-3.288s7.384-5.24 9.72-9.144l-8.688-4.464c-1.888 2.464-3.992 4.296-6.312 5.496s-4.968 1.8-7.944 1.8c-3.136 0-5.912-.632-8.328-1.896s-4.296-3.024-5.64-5.28-2.016-4.872-2.016-7.848h40.032c.096-.64.16-1.096.192-1.368s.048-.616.048-1.032c0-5.024-1.08-9.424-3.24-13.2s-5.168-6.72-9.024-8.832-8.344-3.168-13.464-3.168c-3.744 0-7.232.672-10.464 2.016s-6.064 3.216-8.496 5.616-4.336 5.184-5.712 8.352-2.064 6.576-2.064 10.224c0 4.928 1.208 9.36 3.624 13.296s5.696 7.04 9.84 9.312 8.84 3.408 14.088 3.408zm13.056-32.112h-27.888c.32-2.272 1.104-4.224 2.352-5.856s2.864-2.896 4.848-3.792 4.24-1.344 6.768-1.344c2.4 0 4.576.456 6.528 1.368s3.568 2.184 4.848 3.816 2.128 3.568 2.544 5.808zm43.379602 30.576v-30.144c0-2.048.48-3.912 1.44-5.592s2.336-3.024 4.128-4.032 3.92-1.512 6.384-1.512c3.584 0 6.392 1.112 8.424 3.336s3.048 5.384 3.048 9.48v28.464h11.952v-30.96c0-4.032-.784-7.52-2.352-10.464s-3.768-5.224-6.6-6.84-6.136-2.424-9.912-2.424c-3.648 0-6.888.696-9.72 2.088s-5.096 3.176-6.792 5.352v-5.904h-11.952v49.152zm111.771319 1.44c15.456 0 29.856-6.624 29.856-25.536 0-10.368-9.696-17.856-18.528-21.6-9.024-3.84-16.512-7.008-16.512-11.424 0-4.32 3.264-7.104 9.408-7.104 8.16 0 16.032 5.472 16.032 5.472l7.296-14.4-.015011-.010929c-.439342-.318173-10.480989-7.477071-24.560989-7.477071-12.768 0-25.824 9.408-25.824 24.192 0 8.256 5.568 15.648 15.072 20.352 9.408 4.704 17.856 7.296 17.856 13.056 0 7.392-7.488 7.776-11.424 7.776-8.832 0-19.392-8.928-19.392-8.928l-9.024 15.168s11.232 10.464 29.76 10.464zm67.157333 0c10.944 0 19.968-3.552 25.536-12.864l-12.288-6.144c-4.128 4.416-6.528 5.472-12 5.472-4.32 0-10.656-2.592-10.656-10.176h35.712c.096-.576.096-1.632.096-2.304 0-17.28-11.424-26.112-26.4-26.112-14.88 0-27.072 11.712-27.072 26.112 0 14.304 12.192 26.016 27.072 26.016zm9.792-33.12h-18.72c.288-4.512 3.552-7.968 9.408-7.968 4.992 0 8.544 2.784 9.312 7.968zm46.709333 31.68v-25.92c0-1.248 1.248-9.984 10.08-9.984 5.664 0 8.832 2.688 8.832 2.688l7.104-14.4s-4.416-3.072-10.752-3.072c-9.696 0-15.072 8.544-15.072 8.544h-.192v-7.104h-16.992v49.248zm66.389333 0 26.4-49.248h-20.16l-12 26.784-12-26.784h-20.16l26.4 49.248zm44.309333-59.52c5.568 0 10.08-4.512 10.08-10.08s-4.512-10.08-10.08-10.08-10.08 4.512-10.08 10.08 4.512 10.08 10.08 10.08zm8.256 59.52v-49.248h-16.992v49.248zm41.045333 1.44c10.944 0 16.512-4.416 16.512-4.416l-5.76-11.808s-3.168 2.304-8.256 2.304c-6.432 0-11.712-5.376-11.712-12.192 0-6.72 5.28-12.096 11.712-12.096 5.088 0 8.256 2.304 8.256 2.304l5.76-11.616s-5.568-4.608-16.512-4.608c-14.304 0-27.264 11.712-27.264 26.208 0 14.4 13.056 25.92 27.264 25.92zm52.277333 0c10.944 0 19.968-3.552 25.536-12.864l-12.288-6.144c-4.128 4.416-6.528 5.472-12 5.472-4.32 0-10.656-2.592-10.656-10.176h35.712c.096-.576.096-1.632.096-2.304 0-17.28-11.424-26.112-26.4-26.112-14.88 0-27.072 11.712-27.072 26.112 0 14.304 12.192 26.016 27.072 26.016zm9.792-33.12h-18.72c.288-4.512 3.552-7.968 9.408-7.968 4.992 0 8.544 2.784 9.312 7.968zm75.274666 31.68 3.744-46.944h.48l16.224 46.464h10.752l16.224-46.464h.48l3.744 46.944h18.047998l-7.104-79.2h-19.199998l-17.568 45.696-17.568-45.696h-19.2l-7.104 79.2zm105.845328 1.44c10.944 0 19.968-3.552 25.536-12.864l-12.288-6.144c-4.128 4.416-6.528 5.472-12 5.472-4.32 0-10.656-2.592-10.656-10.176h35.712c.096-.576.096-1.632.096-2.304 0-17.28-11.424-26.112-26.4-26.112-14.88 0-27.072 11.712-27.072 26.112 0 14.304 12.192 26.016 27.072 26.016zm9.792-33.12h-18.72c.288-4.512 3.552-7.968 9.408-7.968 4.992 0 8.544 2.784 9.312 7.968zm68.30934 16.32c0-10.08-8.448-13.728-14.976-15.744-4.224-1.344-7.68-2.112-7.68-4.704 0-2.304 1.536-2.976 5.28-2.976 5.184 0 10.944 3.072 10.944 3.072l5.568-11.136s-7.008-3.84-16.512-3.84c-12.96 0-21.504 5.76-21.504 15.84 0 7.392 4.992 10.848 9.984 13.44 5.568 2.88 10.944 3.168 10.944 6.72 0 3.264-2.88 3.552-5.28 3.552-5.472 0-12.192-5.664-12.192-5.664l-6.912 11.616s7.104 6.624 19.008 6.624c10.08 0 23.328-2.304 23.328-16.8zm30.77333 15.36v-27.84c0-4.896 4.992-9.6 10.08-9.6 5.472 0 8.832 4.704 8.832 9.6v27.84h16.992v-32.448c0-13.728-12.576-18.24-21.6-18.24-5.376 0-10.272 2.784-14.112 6.624h-.192v-38.496h-16.992v82.56z" fill="#1128a9"/><g transform="translate(145 90)"><g fill="#b6e2d6" stroke="#fff" stroke-width="4"><ellipse cx="70.78828" cy="421.302466" rx="32.626093" ry="17.044351"/><ellipse cx="243.918743" cy="525.176416" rx="32.626093" ry="17.044351"/><ellipse cx="417.049206" cy="421.298138" rx="32.626093" ry="17.044351"/><ellipse cx="155.622207" cy="471.510301" rx="32.626093" ry="17.044351"/><ellipse cx="332.215279" cy="471.505972" rx="32.626093" ry="17.044351"/><ellipse cx="243.918743" cy="438.611184" rx="32.626093" ry="17.044351"/><ellipse cx="155.622207" cy="397.064202" rx="32.626093" ry="17.044351"/><ellipse cx="332.215279" cy="397.059873" rx="32.626093" ry="17.044351"/></g><path d="m9.85790783 338.747234 233.13908417 135.667108 232.005285-136.705352-232.005285-134.628864z" fill="#1128a9"/><g transform="translate(9.690508 133.254749)"><path d="m.16740014 135.974566 233.13908486 135.667108 232.005284-136.705352-232.005284-134.62886374z" fill="#87e3cb"/><use fill="#c8fcee" xlink:href="#a"/><g stroke="#6ed3b9" stroke-width="35"><path d="m-146.299025 234.551246 721.722614-423.41188" mask="url(#b)"/><path d="m-167.063649 329.635297 721.722614-423.41188" mask="url(#b)"/><path d="m19.934985 301.110081 721.722614-423.411879" mask="url(#b)"/><path d="m15.788008 389.855196 721.722614-423.41188" mask="url(#b)"/><path d="m108.6801 421.549879 721.722613-423.411879" mask="url(#b)"/><path d="m295.678733 393.024664 721.722617-423.411879" mask="url(#b)"/><path d="m292.509265 481.769778 721.722615-423.411879" mask="url(#b)"/><g mask="url(#b)"><g transform="matrix(-1 0 0 1 1022.196801 -214.227095)"><path d="m3.489286 423.422594 721.722614-423.41188"/><path d="m.319818 518.506645 721.722613-423.41188"/><path d="m187.318451 489.981429 721.722614-423.411879"/><path d="m184.148983 578.726544 721.722614-423.41188"/><path d="m276.063566 610.421227 721.722613-423.411879"/><path d="m463.0622 581.896012 721.72261-423.411879"/><path d="m459.892731 670.641126 721.722609-423.411879"/></g></g></g></g><g transform="translate(69.099327 36.615999)"><path d="m.44448978 222.157143v-188.9362382l141.25000022 270.2031572z" fill="#1128a9"/><path d="m173.675622 233.955524 117.277327-67.403984v-166.20171996l-117.277327 65.53261326z" fill="#569cf5"/><path d="m0 130.602209 94.8815508 55.83314v-129.754737l-94.8815508-56.680612z" fill="#fb8143" transform="translate(220.862937 75.115901)"/><path d="m173.675622 233.955524 117.277327-67.403984v-166.20171996l-117.277327 65.53261326z" fill="#569cf5"/></g></g></g></g></svg>

<?xml version="1.0" encoding="UTF-8"?>
<svg width="1329px" height="917px" viewBox="0 0 1329 917" version="1.1" xmlns="http://www.w3.org/2000/svg" xmlns:xlink="http://www.w3.org/1999/xlink">
    <title>left stack</title>
    <defs>
        <polygon id="path-1" points="0.167400144 135.974566 233.306485 271.641674 465.311769 134.936322 233.306485 0.307458263"></polygon>
    </defs>
    <g id="left-stack" stroke="none" stroke-width="1" fill="none" fill-rule="evenodd">
        <rect fill="#FFFFFF" x="0" y="0" width="1329" height="917"></rect>
        <path d="M190.032,781.536 C195.568,781.536 200.752,780.48 205.584,778.368 C210.416,776.256 214.656,773.32 218.304,769.56 C221.952,765.8 224.808,761.432 226.872,756.456 C228.936,751.48 229.968,746.144 229.968,740.448 C229.968,734.72 228.936,729.376 226.872,724.416 C224.808,719.456 221.952,715.096 218.304,711.336 C214.656,707.576 210.416,704.64 205.584,702.528 C200.752,700.416 195.568,699.36 190.032,699.36 C184.496,699.36 179.312,700.416 174.48,702.528 C169.648,704.64 165.408,707.576 161.76,711.336 C158.112,715.096 155.256,719.456 153.192,724.416 C151.128,729.376 150.096,734.72 150.096,740.448 C150.096,746.144 151.128,751.48 153.192,756.456 C155.256,761.432 158.112,765.8 161.76,769.56 C165.408,773.32 169.648,776.256 174.48,778.368 C179.312,780.48 184.496,781.536 190.032,781.536 Z M190.032,769.44 C186.288,769.44 182.808,768.712 179.592,767.256 C176.376,765.8 173.576,763.768 171.192,761.16 C168.808,758.552 166.96,755.488 165.648,751.968 C164.336,748.448 163.68,744.608 163.68,740.448 C163.68,736.288 164.336,732.448 165.648,728.928 C166.96,725.408 168.808,722.344 171.192,719.736 C173.576,717.128 176.376,715.096 179.592,713.64 C182.808,712.184 186.288,711.456 190.032,711.456 C193.808,711.456 197.304,712.184 200.52,713.64 C203.736,715.096 206.536,717.128 208.92,719.736 C211.304,722.344 213.152,725.408 214.464,728.928 C215.776,732.448 216.432,736.288 216.432,740.448 C216.432,744.608 215.776,748.448 214.464,751.968 C213.152,755.488 211.304,758.552 208.92,761.16 C206.536,763.768 203.736,765.8 200.52,767.256 C197.304,768.712 193.808,769.44 190.032,769.44 Z M262.65614,804.96 L262.65614,772.128 C264.80014,775.104 267.47214,777.416 270.67214,779.064 C273.87214,780.712 277.32814,781.536 281.04014,781.536 C285.68014,781.536 289.83214,780.392 293.49614,778.104 C297.16014,775.816 300.05614,772.704 302.18414,768.768 C304.31214,764.832 305.37614,760.384 305.37614,755.424 C305.37614,750.4 304.30414,745.928 302.16014,742.008 C300.01614,738.088 297.09614,734.992 293.40014,732.72 C289.70414,730.448 285.48814,729.312 280.75214,729.312 C277.00814,729.312 273.55214,730.104 270.38414,731.688 C267.21614,733.272 264.64014,735.488 262.65614,738.336 L262.65614,738.336 L262.65614,730.848 L250.70414,730.848 L250.70414,804.96 L262.65614,804.96 Z M277.63214,771.312 C274.68814,771.312 272.05614,770.632 269.73614,769.272 C267.41614,767.912 265.60014,766.032 264.28814,763.632 C262.97614,761.232 262.32014,758.496 262.32014,755.424 C262.32014,752.352 262.98414,749.616 264.31214,747.216 C265.64014,744.816 267.45614,742.936 269.76014,741.576 C272.06414,740.216 274.68814,739.536 277.63214,739.536 C280.57614,739.536 283.18414,740.216 285.45614,741.576 C287.72814,742.936 289.52814,744.824 290.85614,747.24 C292.18414,749.656 292.84814,752.4 292.84814,755.472 C292.84814,758.544 292.19214,761.272 290.88014,763.656 C289.56814,766.04 287.76814,767.912 285.48014,769.272 C283.19214,770.632 280.57614,771.312 277.63214,771.312 Z M348.950987,781.536 C354.038987,781.536 358.654987,780.44 362.798987,778.248 C366.942987,776.056 370.182987,773.008 372.518987,769.104 L372.518987,769.104 L363.830987,764.64 C361.942987,767.104 359.838987,768.936 357.518987,770.136 C355.198987,771.336 352.550987,771.936 349.574987,771.936 C346.438987,771.936 343.662987,771.304 341.246987,770.04 C338.830987,768.776 336.950987,767.016 335.606987,764.76 C334.262987,762.504 333.590987,759.888 333.590987,756.912 L333.590987,756.912 L373.622987,756.912 C373.718987,756.272 373.782987,755.816 373.814987,755.544 C373.846987,755.272 373.862987,754.928 373.862987,754.512 C373.862987,749.488 372.782987,745.088 370.622987,741.312 C368.462987,737.536 365.454987,734.592 361.598987,732.48 C357.742987,730.368 353.254987,729.312 348.134987,729.312 C344.390987,729.312 340.902987,729.984 337.670987,731.328 C334.438987,732.672 331.606987,734.544 329.174987,736.944 C326.742987,739.344 324.838987,742.128 323.462987,745.296 C322.086987,748.464 321.398987,751.872 321.398987,755.52 C321.398987,760.448 322.606987,764.88 325.022987,768.816 C327.438987,772.752 330.718987,775.856 334.862987,778.128 C339.006987,780.4 343.702987,781.536 348.950987,781.536 Z M362.006987,749.424 L334.118987,749.424 C334.438987,747.152 335.222987,745.2 336.470987,743.568 C337.718987,741.936 339.334987,740.672 341.318987,739.776 C343.302987,738.88 345.558987,738.432 348.086987,738.432 C350.486987,738.432 352.662987,738.888 354.614987,739.8 C356.566987,740.712 358.182987,741.984 359.462987,743.616 C360.742987,745.248 361.590987,747.184 362.006987,749.424 L362.006987,749.424 Z M405.386589,780 L405.386589,749.856 C405.386589,747.808 405.866589,745.944 406.826589,744.264 C407.786589,742.584 409.162589,741.24 410.954589,740.232 C412.746589,739.224 414.874589,738.72 417.338589,738.72 C420.922589,738.72 423.730589,739.832 425.762589,742.056 C427.794589,744.28 428.810589,747.44 428.810589,751.536 L428.810589,751.536 L428.810589,780 L440.762589,780 L440.762589,749.04 C440.762589,745.008 439.978589,741.52 438.410589,738.576 C436.842589,735.632 434.642589,733.352 431.810589,731.736 C428.978589,730.12 425.674589,729.312 421.898589,729.312 C418.250589,729.312 415.010589,730.008 412.178589,731.4 C409.346589,732.792 407.082589,734.576 405.386589,736.752 L405.386589,736.752 L405.386589,730.848 L393.434589,730.848 L393.434589,780 L405.386589,780 Z M517.157908,781.44 C532.613908,781.44 547.013908,774.816 547.013908,755.904 C547.013908,745.536 537.317908,738.048 528.485908,734.304 C519.461908,730.464 511.973908,727.296 511.973908,722.88 C511.973908,718.56 515.237908,715.776 521.381908,715.776 C529.541908,715.776 537.413908,721.248 537.413908,721.248 L544.709908,706.848 L544.694897,706.837071 C544.255555,706.518898 534.213908,699.36 520.133908,699.36 C507.365908,699.36 494.309908,708.768 494.309908,723.552 C494.309908,731.808 499.877908,739.2 509.381908,743.904 C518.789908,748.608 527.237908,751.2 527.237908,756.96 C527.237908,764.352 519.749908,764.736 515.813908,764.736 C506.981908,764.736 496.421908,755.808 496.421908,755.808 L487.397908,770.976 C487.397908,770.976 498.629908,781.44 517.157908,781.44 Z M584.315241,781.44 C595.259241,781.44 604.283241,777.888 609.851241,768.576 L597.563241,762.432 C593.435241,766.848 591.035241,767.904 585.563241,767.904 C581.243241,767.904 574.907241,765.312 574.907241,757.728 L610.619241,757.728 C610.715241,757.152 610.715241,756.096 610.715241,755.424 C610.715241,738.144 599.291241,729.312 584.315241,729.312 C569.435241,729.312 557.243241,741.024 557.243241,755.424 C557.243241,769.728 569.435241,781.44 584.315241,781.44 Z M594.107241,748.32 L575.387241,748.32 C575.675241,743.808 578.939241,740.352 584.795241,740.352 C589.787241,740.352 593.339241,743.136 594.107241,748.32 Z M640.816574,780 L640.816574,754.08 C640.816574,752.832 642.064574,744.096 650.896574,744.096 C656.560574,744.096 659.728574,746.784 659.728574,746.784 L666.832574,732.384 C666.832574,732.384 662.416574,729.312 656.080574,729.312 C646.384574,729.312 641.008574,737.856 641.008574,737.856 L640.816574,737.856 L640.816574,730.752 L623.824574,730.752 L623.824574,780 L640.816574,780 Z M707.205907,780 L733.605907,730.752 L713.445907,730.752 L701.445907,757.536 L689.445907,730.752 L669.285907,730.752 L695.685907,780 L707.205907,780 Z M751.51524,720.48 C757.08324,720.48 761.59524,715.968 761.59524,710.4 C761.59524,704.832 757.08324,700.32 751.51524,700.32 C745.94724,700.32 741.43524,704.832 741.43524,710.4 C741.43524,715.968 745.94724,720.48 751.51524,720.48 Z M759.77124,780 L759.77124,730.752 L742.77924,730.752 L742.77924,780 L759.77124,780 Z M800.816573,781.44 C811.760573,781.44 817.328573,777.024 817.328573,777.024 L811.568573,765.216 C811.568573,765.216 808.400573,767.52 803.312573,767.52 C796.880573,767.52 791.600573,762.144 791.600573,755.328 C791.600573,748.608 796.880573,743.232 803.312573,743.232 C808.400573,743.232 811.568573,745.536 811.568573,745.536 L817.328573,733.92 C817.328573,733.92 811.760573,729.312 800.816573,729.312 C786.512573,729.312 773.552573,741.024 773.552573,755.52 C773.552573,769.92 786.608573,781.44 800.816573,781.44 Z M853.093906,781.44 C864.037906,781.44 873.061906,777.888 878.629906,768.576 L866.341906,762.432 C862.213906,766.848 859.813906,767.904 854.341906,767.904 C850.021906,767.904 843.685906,765.312 843.685906,757.728 L879.397906,757.728 C879.493906,757.152 879.493906,756.096 879.493906,755.424 C879.493906,738.144 868.069906,729.312 853.093906,729.312 C838.213906,729.312 826.021906,741.024 826.021906,755.424 C826.021906,769.728 838.213906,781.44 853.093906,781.44 Z M862.885906,748.32 L844.165906,748.32 C844.453906,743.808 847.717906,740.352 853.573906,740.352 C858.565906,740.352 862.117906,743.136 862.885906,748.32 Z M938.160572,780 L941.904572,733.056 L942.384572,733.056 L958.608572,779.52 L969.360572,779.52 L985.584572,733.056 L986.064572,733.056 L989.808572,780 L1007.85657,780 L1000.75257,700.8 L981.552572,700.8 L963.984572,746.496 L946.416572,700.8 L927.216572,700.8 L920.112572,780 L938.160572,780 Z M1044.0059,781.44 C1054.9499,781.44 1063.9739,777.888 1069.5419,768.576 L1057.2539,762.432 C1053.1259,766.848 1050.7259,767.904 1045.2539,767.904 C1040.9339,767.904 1034.5979,765.312 1034.5979,757.728 L1070.3099,757.728 C1070.4059,757.152 1070.4059,756.096 1070.4059,755.424 C1070.4059,738.144 1058.9819,729.312 1044.0059,729.312 C1029.1259,729.312 1016.9339,741.024 1016.9339,755.424 C1016.9339,769.728 1029.1259,781.44 1044.0059,781.44 Z M1053.7979,748.32 L1035.0779,748.32 C1035.3659,743.808 1038.6299,740.352 1044.4859,740.352 C1049.4779,740.352 1053.0299,743.136 1053.7979,748.32 Z M1122.10724,764.64 C1122.10724,754.56 1113.65924,750.912 1107.13124,748.896 C1102.90724,747.552 1099.45124,746.784 1099.45124,744.192 C1099.45124,741.888 1100.98724,741.216 1104.73124,741.216 C1109.91524,741.216 1115.67524,744.288 1115.67524,744.288 L1121.24324,733.152 C1121.24324,733.152 1114.23524,729.312 1104.73124,729.312 C1091.77124,729.312 1083.22724,735.072 1083.22724,745.152 C1083.22724,752.544 1088.21924,756 1093.21124,758.592 C1098.77924,761.472 1104.15524,761.76 1104.15524,765.312 C1104.15524,768.576 1101.27524,768.864 1098.87524,768.864 C1093.40324,768.864 1086.68324,763.2 1086.68324,763.2 L1079.77124,774.816 C1079.77124,774.816 1086.87524,781.44 1098.77924,781.44 C1108.85924,781.44 1122.10724,779.136 1122.10724,764.64 Z M1152.88057,780 L1152.88057,752.16 C1152.88057,747.264 1157.87257,742.56 1162.96057,742.56 C1168.43257,742.56 1171.79257,747.264 1171.79257,752.16 L1171.79257,780 L1188.78457,780 L1188.78457,747.552 C1188.78457,733.824 1176.20857,729.312 1167.18457,729.312 C1161.80857,729.312 1156.91257,732.096 1153.07257,735.936 L1152.88057,735.936 L1152.88057,697.44 L1135.88857,697.44 L1135.88857,780 L1152.88057,780 Z" id="OpenServiceMesh" fill="#1128A9" fill-rule="nonzero"></path>
        <g id="mesh-logo" transform="translate(145.000000, 90.000000)">
            <g id="dot-grid" transform="translate(36.083241, 377.915458)" fill="#B6E2D6" fill-rule="nonzero" stroke="#FFFFFF" stroke-width="4">
                <ellipse id="Oval-9" cx="34.7050387" cy="43.3870084" rx="32.6260927" ry="17.044351"></ellipse>
                <ellipse id="Oval-9" cx="207.835502" cy="147.260958" rx="32.6260927" ry="17.044351"></ellipse>
                <ellipse id="Oval-9" cx="380.965965" cy="43.3826801" rx="32.6260927" ry="17.044351"></ellipse>
                <ellipse id="Oval-9" cx="119.538966" cy="93.5948427" rx="32.6260927" ry="17.044351"></ellipse>
                <ellipse id="Oval-9" cx="296.132038" cy="93.5905144" rx="32.6260927" ry="17.044351"></ellipse>
                <ellipse id="Oval-9" cx="207.835502" cy="60.6957264" rx="32.6260927" ry="17.044351"></ellipse>
                <ellipse id="Oval-9" cx="119.538966" cy="19.1487435" rx="32.6260927" ry="17.044351"></ellipse>
                <ellipse id="Oval-9" cx="296.132038" cy="19.1444152" rx="32.6260927" ry="17.044351"></ellipse>
            </g>
            <polygon id="Path-8" fill="#1128A9" fill-rule="nonzero" points="9.85790783 338.747234 242.996992 474.414342 475.002277 337.70899 242.996992 203.080126"></polygon>
            <g id="mesh" transform="translate(9.690508, 133.254749)">
                <polygon id="Path-8" fill="#87E3CB" fill-rule="nonzero" points="0.167400144 135.974566 233.306485 271.641674 465.311769 134.936322 233.306485 0.307458263"></polygon>
                <mask id="mask-2" fill="white">
                    <use xlink:href="#path-1"></use>
                </mask>
                <use id="Path-8" fill="#C8FCEE" fill-rule="nonzero" xlink:href="#path-1"></use>
                <line x1="-146.299025" y1="234.551246" x2="575.423589" y2="-188.860634" id="Path-2" stroke="#6ED3B9" stroke-width="35" fill-rule="nonzero" mask="url(#mask-2)"></line>
                <line x1="-167.063649" y1="329.635297" x2="554.658965" y2="-93.7765828" id="Path-2" stroke="#6ED3B9" stroke-width="35" fill-rule="nonzero" mask="url(#mask-2)"></line>
                <line x1="19.9349852" y1="301.110081" x2="741.657599" y2="-122.301798" id="Path-2" stroke="#6ED3B9" stroke-width="35" fill-rule="nonzero" mask="url(#mask-2)"></line>
                <line x1="15.7880081" y1="389.855196" x2="737.510622" y2="-33.5566837" id="Path-2" stroke="#6ED3B9" stroke-width="35" fill-rule="nonzero" mask="url(#mask-2)"></line>
                <line x1="108.6801" y1="421.549879" x2="830.402713" y2="-1.86200006" id="Path-2" stroke="#6ED3B9" stroke-width="35" fill-rule="nonzero" mask="url(#mask-2)"></line>
                <line x1="295.678733" y1="393.024664" x2="1017.40135" y2="-30.3872154" id="Path-2" stroke="#6ED3B9" stroke-width="35" fill-rule="nonzero" mask="url(#mask-2)"></line>
                <line x1="292.509265" y1="481.769778" x2="1014.23188" y2="58.357899" id="Path-2" stroke="#6ED3B9" stroke-width="35" fill-rule="nonzero" mask="url(#mask-2)"></line>
                <g id="lines" mask="url(#mask-2)" fill-rule="nonzero" stroke="#6ED3B9" stroke-width="35">
                    <g transform="translate(429.696801, 121.272905) scale(-1, 1) translate(-429.696801, -121.272905) translate(-162.803199, -214.227095)" id="Path-2">
                        <line x1="3.48928597" y1="423.422594" x2="725.2119" y2="0.010714265"></line>
                        <line x1="0.319817605" y1="518.506645" x2="722.042431" y2="95.0947653"></line>
                        <line x1="187.318451" y1="489.981429" x2="909.041065" y2="66.56955"></line>
                        <line x1="184.148983" y1="578.726544" x2="905.871597" y2="155.314664"></line>
                        <line x1="276.063566" y1="610.421227" x2="997.786179" y2="187.009348"></line>
                        <line x1="463.0622" y1="581.896012" x2="1184.78481" y2="158.484133"></line>
                        <line x1="459.892731" y1="670.641126" x2="1181.61534" y2="247.229247"></line>
                    </g>
                </g>
            </g>
            <g id="shapes" transform="translate(69.099327, 36.615999)" fill-rule="nonzero">
                <polygon id="Path-4" fill="#1128A9" points="0.444489783 222.157143 0.444489783 33.2209048 141.69449 303.424062"></polygon>
                <polygon id="Path-26" fill="#569CF5" points="173.675622 233.955524 290.952949 166.55154 290.952949 0.349820044 173.675622 65.8824333"></polygon>
                <g id="orange" transform="translate(220.862937, 75.115901)" fill="#FB8143">
                    <polygon id="Path-25" points="-1.14392311e-14 130.602209 94.8815508 186.435349 94.8815508 56.680612 -1.14392311e-14 -3.31175707e-13"></polygon>
                </g>
                <polygon id="Path-26" fill="#569CF5" style="mix-blend-mode: overlay;" points="173.675622 233.955524 290.952949 166.55154 290.952949 0.349820044 173.675622 65.8824333"></polygon>
            </g>
        </g>
    </g>
</svg>
